src/assets/duotone/CardEdit.svg

<?xml version="1.0" encoding="UTF-8"?>
<svg width="24" height="24" viewBox="0 0 24 24" xmlns="http://www.w3.org/2000/svg">
 <path d="m22 7.77v1.23h-20v-1.46c0-2.29 1.86-4.14 4.15-4.14h9.85v2.57c0 1.27 0.76 2.03 2.03 2.03h2.94c0.4 0 0.74-0.07 1.03-0.23z" opacity=".4"/>
 <path d="m2 9v7.46c0 2.29 1.86 4.14 4.15 4.14h11.7c2.29 0 4.15-1.85 4.15-4.14v-7.46h-20zm6 8.25h-2c-0.41 0-0.75-0.34-0.75-0.75s0.34-0.75 0.75-0.75h2c0.41 0 0.75 0.34 0.75 0.75s-0.34 0.75-0.75 0.75zm6.5 0h-4c-0.41 0-0.75-0.34-0.75-0.75s0.34-0.75 0.75-0.75h4c0.41 0 0.75 0.34 0.75 0.75s-0.34 0.75-0.75 0.75z"/>
 <path d="m20.97 1h-2.94c-1.27 0-2.03 0.76-2.03 2.03v2.94c0 1.27 0.76 2.03 2.03 2.03h2.94c1.27 0 2.03-0.76 2.03-2.03v-2.94c0-1.27-0.76-2.03-2.03-2.03zm-1.96 5.57c-0.03 0.03-0.1 0.07-0.15 0.07l-1.04 0.15c-0.03 0.01-0.07 0.01-0.1 0.01-0.15 0-0.28-0.05-0.37-0.15-0.12-0.12-0.17-0.29-0.14-0.47l0.15-1.04c0.01-0.05 0.04-0.12 0.07-0.15l1.7-1.7c0.03 0.07 0.06 0.15 0.09 0.23 0.04 0.08 0.08 0.15 0.12 0.22 0.03 0.06 0.07 0.12 0.11 0.16 0.04 0.06 0.08 0.12 0.11 0.15 0.02 0.03 0.03 0.04 0.04 0.05 0.09 0.11 0.19 0.21 0.28 0.28 0.02 0.02 0.04 0.04 0.05 0.04 0.05 0.04 0.11 0.09 0.15 0.12 0.06 0.04 0.11 0.08 0.17 0.11 0.07 0.04 0.15 0.08 0.23 0.12s0.16 0.07 0.23 0.09l-1.7 1.71zm2.39-2.39-0.32 0.32c-0.02 0.03-0.05 0.04-0.08 0.04h-0.03c-0.72-0.21-1.29-0.78-1.5-1.5-0.01-0.04 0-0.08 0.03-0.11l0.33-0.33c0.54-0.54 1.05-0.53 1.58 0 0.27 0.27 0.4 0.53 0.4 0.79-0.01 0.26-0.14 0.52-0.41 0.79z"/>
</svg>

<svg width="24" height="24" viewBox="0 0 24 24"  xmlns="http://www.w3.org/2000/svg">
<path opacity="0.4" d="M22 7.77002V9.00002H2V7.54002C2 5.25002 3.86 3.40002 6.15 3.40002H16V5.97002C16 7.24002 16.76 8.00002 18.03 8.00002H20.97C21.37 8.00002 21.71 7.93002 22 7.77002Z" />
<path d="M2 9V16.46C2 18.75 3.86 20.6 6.15 20.6H17.85C20.14 20.6 22 18.75 22 16.46V9H2ZM8 17.25H6C5.59 17.25 5.25 16.91 5.25 16.5C5.25 16.09 5.59 15.75 6 15.75H8C8.41 15.75 8.75 16.09 8.75 16.5C8.75 16.91 8.41 17.25 8 17.25ZM14.5 17.25H10.5C10.09 17.25 9.75 16.91 9.75 16.5C9.75 16.09 10.09 15.75 10.5 15.75H14.5C14.91 15.75 15.25 16.09 15.25 16.5C15.25 16.91 14.91 17.25 14.5 17.25Z" />
<path d="M20.97 1H18.03C16.76 1 16 1.76 16 3.03V5.97C16 7.24 16.76 8 18.03 8H20.97C22.24 8 23 7.24 23 5.97V3.03C23 1.76 22.24 1 20.97 1ZM19.01 6.57C18.98 6.6 18.91 6.64 18.86 6.64L17.82 6.79C17.79 6.8 17.75 6.8 17.72 6.8C17.57 6.8 17.44 6.75 17.35 6.65C17.23 6.53 17.18 6.36 17.21 6.18L17.36 5.14C17.37 5.09 17.4 5.02 17.43 4.99L19.13 3.29C19.16 3.36 19.19 3.44 19.22 3.52C19.26 3.6 19.3 3.67 19.34 3.74C19.37 3.8 19.41 3.86 19.45 3.9C19.49 3.96 19.53 4.02 19.56 4.05C19.58 4.08 19.59 4.09 19.6 4.1C19.69 4.21 19.79 4.31 19.88 4.38C19.9 4.4 19.92 4.42 19.93 4.42C19.98 4.46 20.04 4.51 20.08 4.54C20.14 4.58 20.19 4.62 20.25 4.65C20.32 4.69 20.4 4.73 20.48 4.77C20.56 4.81 20.64 4.84 20.71 4.86L19.01 6.57ZM21.4 4.18L21.08 4.5C21.06 4.53 21.03 4.54 21 4.54C20.99 4.54 20.98 4.54 20.97 4.54C20.25 4.33 19.68 3.76 19.47 3.04C19.46 3 19.47 2.96 19.5 2.93L19.83 2.6C20.37 2.06 20.88 2.07 21.41 2.6C21.68 2.87 21.81 3.13 21.81 3.39C21.8 3.65 21.67 3.91 21.4 4.18Z" />
</svg>
